build/img/icon/tourney-icon.svg

<svg width="39" height="49" viewBox="0 0 39 49" fill="none" xmlns="http://www.w3.org/2000/svg">
<mask id="path-1-inside-1" fill="white">
<path fill-rule="evenodd" clip-rule="evenodd" d="M0 0H12.7188H25.4375V13.3479C25.4375 19.0073 22.0811 24.5596 17.3438 26.8335V26.6958H8.09375V26.8335C3.35645 24.5596 0 19.0073 0 13.3479V0Z"/>
</mask>
<path d="M0 0V-2H-2V0H0ZM25.4375 0H27.4375V-2H25.4375V0ZM17.3438 26.8335H15.3438V30.012L18.2092 28.6365L17.3438 26.8335ZM17.3438 26.6958H19.3438V24.6958H17.3438V26.6958ZM8.09375 26.6958V24.6958H6.09375V26.6958H8.09375ZM8.09375 26.8335L7.22828 28.6365L10.0938 30.012V26.8335H8.09375ZM12.7188 -2H0V2H12.7188V-2ZM25.4375 -2H12.7188V2H25.4375V-2ZM27.4375 13.3479V0H23.4375V13.3479H27.4375ZM18.2092 28.6365C23.6963 26.0027 27.4375 19.712 27.4375 13.3479H23.4375C23.4375 18.3027 20.4658 23.1164 16.4783 25.0305L18.2092 28.6365ZM15.3438 26.6958V26.8335H19.3438V26.6958H15.3438ZM8.09375 28.6958H17.3438V24.6958H8.09375V28.6958ZM10.0938 26.8335V26.6958H6.09375V26.8335H10.0938ZM-2 13.3479C-2 19.712 1.74122 26.0027 7.22828 28.6365L8.95922 25.0305C4.97167 23.1164 2 18.3027 2 13.3479H-2ZM-2 0V13.3479H2V0H-2Z" transform="translate(6.78125)" fill="#2E3237" mask="url(#path-1-inside-1)"/>
<path d="M0 0V4.66667H9.25V0" transform="translate(14.875 25.6667)" stroke="#2E3237" stroke-width="2"/>
<path d="M0 0H5V5.5H0V0Z" transform="translate(17 30.5)" stroke="#2E3237" stroke-width="2"/>
<rect x="1" y="1" width="23.4375" height="12" transform="translate(6.78125 35)" stroke="#2E3237" stroke-width="2"/>
<path d="M0 0H12.7188" transform="translate(13.1406 42)" stroke="#F24841" stroke-width="2"/>
<path d="M9.25 15.1667H8.09375V15.1667C3.6237 15.1667 0 11.543 0 7.07292V0H7.09375" transform="translate(1 5.83325)" stroke="#2E3237" stroke-width="2"/>
<path d="M9.25 15.1667H8.09375V15.1667C3.6237 15.1667 0 11.543 0 7.07292V0H7.09375" transform="translate(38 5.83325) scale(-1 1)" stroke="#2E3237" stroke-width="2"/>
<path d="M1.29044 2.18258C1.22426 2.22805 1.11397 2.28716 0.959559 2.35992C0.805147 2.42357 0.6875 2.47359 0.606618 2.50997C0.283088 2.63729 0.0808823 2.72823 0 2.78279V1.21406C0.25 1.08674 0.551471 0.904862 0.904412 0.668416C1.26471 0.422875 1.51838 0.20007 1.66544 0H3V10H1.29044V2.18258Z" transform="translate(17.5 8)" fill="#F24841"/>
</svg>

<svg width="39" height="49" fill="none" xmlns="http://www.w3.org/2000/svg"><mask id="a" fill="#fff"><path fill-rule="evenodd" clip-rule="evenodd" d="M0 0h25.438v13.348c0 5.66-3.357 11.212-8.094 13.486v-.138h-9.25v.137C3.356 24.56 0 19.008 0 13.349V0z"/></mask><path d="M0 0v-2h-2v2h2zm25.438 0h2v-2h-2v2zm-8.094 26.834h-2v3.178l2.865-1.375-.865-1.803zm0-.138h2v-2h-2v2zm-9.25 0v-2h-2v2h2zm0 .137l-.866 1.804 2.866 1.375v-3.178h-2zM12.719-2H0v4h12.719v-4zm12.719 0h-12.72v4h12.72v-4zm2 15.348V0h-4v13.348h4zm-9.229 15.289c5.487-2.634 9.229-8.925 9.229-15.29h-4c0 4.956-2.972 9.77-6.96 11.684l1.731 3.606zm-2.865-1.941v.137h4v-.137h-4zm-7.25 2h9.25v-4h-9.25v4zm2-1.863v-.137h-4v.137h4zM-2 13.349c0 6.364 3.741 12.655 9.228 15.289L8.96 25.03C4.972 23.116 2 18.303 2 13.348h-4zM-2 0v13.348h4V0h-4z" transform="translate(6.781)" fill="#2E3237" mask="url(#a)"/><path d="M14.875 25.667v4.666h9.25v-4.666M17 30.5h5V36h-5v-5.5zM7.781 36H31.22v12H7.781z" stroke="#2E3237" stroke-width="2"/><path d="M13.14 42h12.72" stroke="#F24841" stroke-width="2"/><path d="M10.25 21H9.094A8.094 8.094 0 0 1 1 12.906V5.833h7.094M28.75 21h1.156A8.094 8.094 0 0 0 38 12.906V5.833h-7.094" stroke="#2E3237" stroke-width="2"/><path d="M18.79 10.183a2.581 2.581 0 0 1-.33.177c-.155.064-.273.114-.353.15-.324.127-.526.218-.607.273V9.214c.25-.127.551-.31.904-.546.36-.245.614-.468.761-.668H20.5v10h-1.71v-7.817z" fill="#F24841"/></svg>
